img/in.svg

<svg width="21" height="22" viewBox="0 0 21 22" fill="none" xmlns="http://www.w3.org/2000/svg">
<path d="M10.5 0.292969C4.70094 0.292969 0 4.99391 0 10.793C0 16.592 4.70094 21.293 10.5 21.293C16.2991 21.293 21 16.592 21 10.793C21 4.99391 16.2991 0.292969 10.5 0.292969ZM7.92969 15.145H5.80344V8.3025H7.92969V15.145ZM6.85344 7.4625C6.18187 7.4625 5.74766 6.98672 5.74766 6.39828C5.74766 5.79781 6.195 5.33625 6.88078 5.33625C7.56656 5.33625 7.98656 5.79781 7.99969 6.39828C7.99969 6.98672 7.56656 7.4625 6.85344 7.4625ZM15.6953 15.145H13.5691V11.353C13.5691 10.4703 13.2606 9.87094 12.4917 9.87094C11.9044 9.87094 11.5555 10.2767 11.4013 10.6672C11.3444 10.8061 11.3302 11.003 11.3302 11.1988V15.1439H9.20281V10.4845C9.20281 9.63031 9.17547 8.91609 9.14703 8.30141H10.9944L11.0917 9.25187H11.1344C11.4144 8.80562 12.1002 8.14719 13.2475 8.14719C14.6464 8.14719 15.6953 9.08453 15.6953 11.0992V15.145Z" fill="#E6E6E6"/>
</svg>

<svg width="21" height="22" fill="none" xmlns="http://www.w3.org/2000/svg"><path d="M10.5.293C4.7.293 0 4.993 0 10.793c0 5.799 4.7 10.5 10.5 10.5S21 16.592 21 10.793c0-5.8-4.7-10.5-10.5-10.5ZM7.93 15.145H5.803V8.303H7.93v6.842ZM6.853 7.463c-.671 0-1.105-.476-1.105-1.065 0-.6.447-1.062 1.133-1.062.686 0 1.106.462 1.119 1.062 0 .589-.433 1.065-1.147 1.065Zm8.842 7.682H13.57v-3.792c0-.883-.308-1.482-1.077-1.482-.588 0-.937.406-1.09.796-.058.14-.072.336-.072.532v3.945H9.203v-4.66c0-.854-.028-1.568-.056-2.183h1.847l.098.95h.042c.28-.445.966-1.104 2.114-1.104 1.398 0 2.447.938 2.447 2.952v4.046Z" fill="#E6E6E6"/></svg>
